X:49
T:La Porte Rouge
C:Fred Guichen
D:"Freres" from Guichen
D:Booklet notes by Sylvaine Guichen
D:Rouge de feu
D:Rouge de colere
D:Que cette porte s'ouvre a l'horizon
D:Et s'apaise enfin
Z:Transcribed by Lionel Gueganton
L:1/8
M:4/4
K:Am
|: Ed ec AB GB | Ed ec AB GB | Ee gd BA GB  | Ee gd BA GB 
|  Ed ec AB GB | Ed ec AB GB | Ee gd BA GB  | Ee gd BA GB :|
|: aA ce ag ed | aA ce ag ed | ed BG Bc dg  | ed BG gG eG
|  aA ce ag ed | aA ce ag ed |1 ed BG gG eG | dG eG gG eG :|2 ed BG gG eG | dG eG dG eG |
